flaticon/stationery/cutter.svg

<svg xmlns="http://www.w3.org/2000/svg" width="32" height="32" viewBox="0 0 24 24">
    <path d="M 23.816406 15.800781 L 9.632812 3.996094 C 9.351562 3.773438 9.023438 3.910156 8.914062 4.0625 L 8.449219 4.617188 L 3.042969 0.121094 C 2.644531 -0.175781 2.269531 0.148438 2.226562 0.363281 L 0.0234375 7.671875 C -0.0390625 7.867188 0.0273438 8.082031 0.183594 8.210938 L 3.300781 10.808594 L 2.839844 11.363281 C 2.660156 11.578125 2.6875 11.902344 2.90625 12.082031 L 17.089844 23.882812 C 17.273438 24.0625 17.652344 24.03125 17.808594 23.816406 L 23.882812 16.519531 C 24.0625 16.300781 24.03125 15.980469 23.816406 15.800781 Z M 1.097656 7.644531 L 2.984375 1.398438 L 7.796875 5.402344 L 3.957031 10.023438 Z M 17.351562 22.773438 L 3.953125 11.621094 L 9.371094 5.109375 L 22.769531 16.257812 Z M 17.351562 22.773438"/>
    <path d="M 8.753906 8.734375 L 7.40625 10.355469 C 7.1875 10.617188 7.300781 10.949219 7.472656 11.074219 L 9.253906 12.558594 C 9.050781 13.082031 9.195312 13.703125 9.648438 14.082031 L 11.800781 15.867188 C 12.398438 16.375 13.128906 16.160156 13.367188 15.984375 L 17.25 19.210938 C 17.429688 19.359375 17.738281 19.398438 17.96875 19.144531 L 19.316406 17.523438 C 19.464844 17.363281 19.507812 17.015625 19.25 16.804688 L 15.371094 13.578125 C 15.570312 13.050781 15.429688 12.433594 14.972656 12.054688 L 12.824219 10.265625 C 12.386719 9.902344 11.738281 9.878906 11.261719 10.15625 L 9.472656 8.667969 C 9.253906 8.488281 8.933594 8.519531 8.753906 8.734375 Z M 9.210938 9.78125 L 10.546875 10.890625 L 9.851562 11.726562 L 8.515625 10.617188 Z M 17.507812 18.097656 L 14.078125 15.242188 L 14.773438 14.40625 L 18.203125 17.261719 Z M 12.171875 11.050781 L 14.320312 12.839844 C 14.460938 12.957031 14.480469 13.164062 14.363281 13.300781 C 14.363281 13.300781 12.964844 14.984375 12.964844 14.984375 L 12.914062 15.042969 C 12.8125 15.179688 12.589844 15.203125 12.453125 15.085938 L 10.304688 13.296875 C 10.164062 13.179688 10.144531 12.972656 10.261719 12.832031 L 11.707031 11.09375 C 11.769531 11.019531 12.09375 10.988281 12.171875 11.050781 Z M 12.171875 11.050781"/>
</svg>

<svg xmlns="http://www.w3.org/2000/svg" width="32" height="32" viewBox="0 0 24 24">
    <path d="M23.816 15.8L9.633 3.997a.513.513 0 0 0-.719.067l-.465.554L3.043.121a.513.513 0 0 0-.816.242L.023 7.672a.504.504 0 0 0 .16.539l3.118 2.598-.461.554a.51.51 0 0 0 .066.719l14.184 11.8c.183.18.562.15.719-.066l6.074-7.296a.512.512 0 0 0-.067-.72zM1.098 7.646l1.886-6.247 4.813 4.004-3.84 4.621zm16.254 15.128L3.953 11.621 9.371 5.11 22.77 16.258zm0 0"/>
    <path d="M8.754 8.734l-1.348 1.621a.505.505 0 0 0 .067.72l1.78 1.484a1.355 1.355 0 0 0 .395 1.523l2.153 1.785c.597.508 1.328.293 1.566.117l3.883 3.227a.51.51 0 0 0 .719-.066l1.347-1.622a.507.507 0 0 0-.066-.718l-3.879-3.227c.2-.527.059-1.144-.398-1.523l-2.149-1.79c-.437-.363-1.086-.386-1.562-.109l-1.79-1.488a.512.512 0 0 0-.718.066zm.457 1.047l1.336 1.11-.695.836-1.336-1.11zm8.297 8.317l-3.43-2.856.695-.836 3.43 2.856zm-5.336-7.047l2.148 1.789c.14.117.16.324.043.46l-1.398 1.684-.05.059c-.102.137-.325.16-.462.043l-2.148-1.79a.33.33 0 0 1-.043-.464l1.445-1.738c.063-.074.387-.106.465-.043zm0 0"/>
</svg>
